svgs/solid/conveyor-belt.svg

<svg xmlns="http://www.w3.org/2000/svg" viewBox="0 0 640 512"><!-- Font Awesome Pro 6.0.0-alpha2 by @fontawesome - https://fontawesome.com License - https://fontawesome.com/license (Commercial License) --><path d="M160 256H480C497.6 256 512 241.6 512 224V32C512 14.4 497.6 0 480 0H384V128L320 96L256 128V0H160C142.4 0 128 14.4 128 32V224C128 241.6 142.4 256 160 256ZM544 320H96C43 320 0 363 0 416S43 512 96 512H544C597 512 640 469 640 416S597 320 544 320ZM128 448C110.25 448 96 433.75 96 416S110.25 384 128 384S160 398.25 160 416S145.75 448 128 448ZM320 448C302.25 448 288 433.75 288 416S302.25 384 320 384S352 398.25 352 416S337.75 448 320 448ZM512 448C494.25 448 480 433.75 480 416S494.25 384 512 384C529.75 384 544 398.25 544 416S529.75 448 512 448Z"/></svg>

<svg xmlns="http://www.w3.org/2000/svg" viewBox="0 0 640 512"><!-- Font Awesome Pro 5.15.1 by @fontawesome - https://fontawesome.com License - https://fontawesome.com/license (Commercial License) --><path d="M144 256h352c8.8 0 16-7.2 16-16V16c0-8.8-7.2-16-16-16H384v128l-64-32-64 32V0H144c-8.8 0-16 7.2-16 16v224c0 8.8 7.2 16 16 16zm400 64H96c-53 0-96 43-96 96s43 96 96 96h448c53 0 96-43 96-96s-43-96-96-96zM128 448c-17.7 0-32-14.3-32-32s14.3-32 32-32 32 14.3 32 32-14.3 32-32 32zm192 0c-17.7 0-32-14.3-32-32s14.3-32 32-32 32 14.3 32 32-14.3 32-32 32zm192 0c-17.7 0-32-14.3-32-32s14.3-32 32-32 32 14.3 32 32-14.3 32-32 32z"/></svg>
